X: 4
T: The Dusty Miller
R: slip jig
M: 9/8
L: 1/8
K: Dmaj
A2 AG AG | AA AG Bd | AA AG AG | BG ~G2 Bd :| AD ~D2 Ad | AD ~D2 Bd | AD ~D2 GA | B2 BA Bd :| A2 AG AD | A2 AG B/c/d | A2 AG AD | BG ~G2 Bd :| AD ~D2 A2 | AD ~D2 Bd | AD ~D2 A2 | BG ~G2 Bd :|


Tune 4323	Setting 17021

